third_party/noto/noto_2/emoji_u23f1.svg

<svg enable-background="new 0 0 128 128" viewBox="0 0 128 128" xmlns="http://www.w3.org/2000/svg"><rect transform="matrix(.7071 .7071 -.7071 .7071 31.136 -9.6101)" x="16.61" y="28.33" width="21.12" height="8.9" fill="#616161"/><g opacity=".2"><path d="m22.85 25 12.1 12.1-3.46 3.46-12.11-12.1 3.47-3.46m0-2.83-6.29 6.29 14.93 14.93 6.29-6.29-14.93-14.93z" fill="#424242"/></g><path d="m29.32 26.62-8.13 8.13c-1.46 1.46-3.83 1.46-5.29 0l-0.78-0.78c-1.46-1.46-1.46-3.83 0-5.29l8.13-8.13c1.46-1.46 3.83-1.46 5.29 0l0.78 0.78c1.46 1.47 1.46 3.84 0 5.29z" fill="#757575"/><g opacity=".2"><path d="m25.9 21.46c0.46 0 0.9 0.18 1.23 0.51l0.78 0.78c0.68 0.68 0.68 1.78 0 2.46l-8.13 8.13c-0.33 0.33-0.76 0.51-1.23 0.51s-0.9-0.18-1.23-0.51l-0.78-0.78c-0.68-0.68-0.68-1.78 0-2.46l8.13-8.13c0.33-0.33 0.76-0.51 1.23-0.51m0-2c-0.96 0-1.91 0.36-2.64 1.09l-8.13 8.13c-1.46 1.46-1.46 3.83 0 5.29l0.78 0.78c0.73 0.73 1.69 1.09 2.64 1.09 0.96 0 1.91-0.36 2.64-1.09l8.13-8.13c1.46-1.46 1.46-3.83 0-5.29l-0.78-0.78c-0.73-0.72-1.69-1.09-2.64-1.09z" fill="#424242"/></g><rect transform="matrix(-.7071 .7071 -.7071 -.7071 195.38 -15.368)" x="90.31" y="28.33" width="21.12" height="8.9" fill="#616161"/><g opacity=".2"><path d="m105.19 25 3.46 3.46-12.1 12.1-3.46-3.46 12.1-12.1m0-2.83-14.93 14.93 6.29 6.29 14.93-14.93-6.29-6.29z" fill="#424242"/></g><path d="m98.72 26.62 8.13 8.13c1.46 1.46 3.83 1.46 5.29 0l0.78-0.78c1.46-1.46 1.46-3.83 0-5.29l-8.13-8.13c-1.46-1.46-3.83-1.46-5.29 0l-0.78 0.78c-1.46 1.47-1.46 3.84 0 5.29z" fill="#757575"/><g opacity=".2"><path d="m102.14 21.46c0.46 0 0.9 0.18 1.23 0.51l8.13 8.13c0.68 0.68 0.68 1.78 0 2.46l-0.78 0.78c-0.33 0.33-0.76 0.51-1.23 0.51s-0.9-0.18-1.23-0.51l-8.13-8.13c-0.68-0.68-0.68-1.78 0-2.46l0.78-0.78c0.33-0.33 0.77-0.51 1.23-0.51m0-2c-0.96 0-1.91 0.36-2.64 1.09l-0.78 0.78c-1.46 1.46-1.46 3.83 0 5.29l8.13 8.13c0.73 0.73 1.69 1.09 2.64 1.09 0.96 0 1.91-0.36 2.64-1.09l0.78-0.78c1.46-1.46 1.46-3.83 0-5.29l-8.13-8.13c-0.72-0.72-1.68-1.09-2.64-1.09z" fill="#424242"/></g><rect transform="matrix(6.1926e-11 1 -1 6.1926e-11 79.452 -48.495)" x="53.41" y="11.03" width="21.12" height="8.9" fill="#616161"/><g opacity=".2"><path d="m66.42 6.92v17.12h-4.9v-17.12h4.9m2-2h-8.9v21.12h8.9v-21.12z" fill="#424242"/></g><path d="m74.43 15.57h-20.36c-2.9 0-5.25-2.35-5.25-5.25v-1c0-2.9 2.35-5.25 5.25-5.25h20.36c2.9 0 5.25 2.35 5.25 5.25v1c0 2.9-2.35 5.25-5.25 5.25z" fill="#757575"/><g opacity=".2"><path d="m74.43 6.07c1.79 0 3.25 1.46 3.25 3.25v1c0 1.79-1.46 3.25-3.25 3.25h-20.36c-1.79 0-3.25-1.46-3.25-3.25v-1c0-1.79 1.46-3.25 3.25-3.25h20.36m0-2h-20.36c-2.9 0-5.25 2.35-5.25 5.25v1c0 2.9 2.35 5.25 5.25 5.25h20.36c2.9 0 5.25-2.35 5.25-5.25v-1c0-2.9-2.35-5.25-5.25-5.25z" fill="#424242"/></g><circle cx="64" cy="71.9" r="52.03" fill="#616161"/><linearGradient id="a" x1="64.254" x2="64.254" y1="41.925" y2="119.54" gradientUnits="userSpaceOnUse"><stop stop-color="#ECEFF1" offset=".3212"/><stop stop-color="#B0BEC5" offset="1"/></linearGradient><circle cx="64.25" cy="71.9" r="40.32" fill="url(#a)"/><path d="m63.08 46.97-3.23 27.6 4.02 2.33 4.74-2.33-3.51-27.61c-0.18-1.03-1.86-1.02-2.02 0.01z" fill="#F44336"/><circle cx="31.96" cy="72.01" r="3.47" fill="#757575"/><circle cx="63.91" cy="38.98" r="3.47" fill="#757575"/><circle cx="63.91" cy="103.96" r="3.47" fill="#757575"/><circle cx="95.86" cy="72.01" r="3.47" fill="#757575"/><g opacity=".2"><path d="m64.25 33.58c21.13 0 38.32 17.19 38.32 38.32s-17.19 38.32-38.32 38.32-38.32-17.19-38.32-38.32 17.19-38.32 38.32-38.32m0-2c-22.27 0-40.32 18.05-40.32 40.32s18.05 40.32 40.32 40.32 40.32-18.05 40.32-40.32-18.05-40.32-40.32-40.32z" fill="#424242"/></g><g opacity=".2"><path d="m64 22.87c27.04 0 49.03 22 49.03 49.03s-22 49.03-49.03 49.03-49.03-22-49.03-49.03 21.99-49.03 49.03-49.03m0-3c-28.74 0-52.03 23.3-52.03 52.03s23.3 52.03 52.03 52.03 52.03-23.3 52.03-52.03-23.29-52.03-52.03-52.03z" fill="#424242"/></g><circle cx="64" cy="71.9" r="6.07" fill="#424242"/><circle cx="64" cy="71.9" r="2.6" fill="#CFD8DC"/></svg>

<svg width="128" height="128" style="enable-background:new 0 0 128 128;" xmlns="http://www.w3.org/2000/svg" xmlns:xlink="http://www.w3.org/1999/xlink">
  <g id="图层_3">
    <g>
      <g>
        <rect height="8.9" style="fill:#616161;" transform="matrix(0.7071 0.7071 -0.7071 0.7071 31.1364 -9.6101)" width="21.12" x="16.61" y="28.33"/>
        <g style="opacity:0.2;">
          <path d="M22.85,25L34.95,37.1l-3.46,3.46L19.38,28.46L22.85,25 M22.85,22.17l-6.29,6.29l14.93,14.93 l6.29-6.29L22.85,22.17L22.85,22.17z" style="fill:#424242;"/>
        </g>
        <path d="M29.32,26.62l-8.13,8.13c-1.46,1.46-3.83,1.46-5.29,0l-0.78-0.78c-1.46-1.46-1.46-3.83,0-5.29 l8.13-8.13c1.46-1.46,3.83-1.46,5.29,0l0.78,0.78C30.78,22.8,30.78,25.17,29.32,26.62z" style="fill:#757575;"/>
        <g style="opacity:0.2;">
          <path d="M25.9,21.46c0.46,0,0.9,0.18,1.23,0.51l0.78,0.78c0.68,0.68,0.68,1.78,0,2.46l-8.13,8.13 c-0.33,0.33-0.76,0.51-1.23,0.51s-0.9-0.18-1.23-0.51l-0.78-0.78c-0.68-0.68-0.68-1.78,0-2.46l8.13-8.13 C25,21.64,25.43,21.46,25.9,21.46 M25.9,19.46c-0.96,0-1.91,0.36-2.64,1.09l-8.13,8.13c-1.46,1.46-1.46,3.83,0,5.29l0.78,0.78 c0.73,0.73,1.69,1.09,2.64,1.09c0.96,0,1.91-0.36,2.64-1.09l8.13-8.13c1.46-1.46,1.46-3.83,0-5.29l-0.78-0.78 C27.81,19.83,26.85,19.46,25.9,19.46L25.9,19.46z" style="fill:#424242;"/>
        </g>
      </g>
      <g>
        <rect height="8.9" style="fill:#616161;" transform="matrix(-0.7071 0.7071 -0.7071 -0.7071 195.3766 -15.3679)" width="21.12" x="90.31" y="28.33"/>
        <g style="opacity:0.2;">
          <path d="M105.19,25l3.46,3.46L96.55,40.56l-3.46-3.46L105.19,25 M105.19,22.17L90.26,37.1l6.29,6.29 l14.93-14.93L105.19,22.17L105.19,22.17z" style="fill:#424242;"/>
        </g>
        <path d="M98.72,26.62l8.13,8.13c1.46,1.46,3.83,1.46,5.29,0l0.78-0.78c1.46-1.46,1.46-3.83,0-5.29 l-8.13-8.13c-1.46-1.46-3.83-1.46-5.29,0l-0.78,0.78C97.26,22.8,97.26,25.17,98.72,26.62z" style="fill:#757575;"/>
        <g style="opacity:0.2;">
          <path d="M102.14,21.46c0.46,0,0.9,0.18,1.23,0.51l8.13,8.13c0.68,0.68,0.68,1.78,0,2.46l-0.78,0.78 c-0.33,0.33-0.76,0.51-1.23,0.51s-0.9-0.18-1.23-0.51l-8.13-8.13c-0.68-0.68-0.68-1.78,0-2.46l0.78-0.78 C101.24,21.64,101.68,21.46,102.14,21.46 M102.14,19.46c-0.96,0-1.91,0.36-2.64,1.09l-0.78,0.78c-1.46,1.46-1.46,3.83,0,5.29 l8.13,8.13c0.73,0.73,1.69,1.09,2.64,1.09c0.96,0,1.91-0.36,2.64-1.09l0.78-0.78c1.46-1.46,1.46-3.83,0-5.29l-8.13-8.13 C104.06,19.83,103.1,19.46,102.14,19.46L102.14,19.46z" style="fill:#424242;"/>
        </g>
      </g>
      <g>
        <rect height="8.9" style="fill:#616161;" transform="matrix(6.192628e-11 1 -1 6.192628e-11 79.4518 -48.4952)" width="21.12" x="53.41" y="11.03"/>
        <g style="opacity:0.2;">
          <path d="M66.42,6.92v17.12h-4.9V6.92H66.42 M68.42,4.92h-8.9v21.12h8.9V4.92L68.42,4.92z" style="fill:#424242;"/>
        </g>
        <path d="M74.43,15.57H54.07c-2.9,0-5.25-2.35-5.25-5.25v-1c0-2.9,2.35-5.25,5.25-5.25h20.36 c2.9,0,5.25,2.35,5.25,5.25v1C79.68,13.22,77.33,15.57,74.43,15.57z" style="fill:#757575;"/>
        <g style="opacity:0.2;">
          <path d="M74.43,6.07c1.79,0,3.25,1.46,3.25,3.25v1c0,1.79-1.46,3.25-3.25,3.25H54.07 c-1.79,0-3.25-1.46-3.25-3.25v-1c0-1.79,1.46-3.25,3.25-3.25H74.43 M74.43,4.07H54.07c-2.9,0-5.25,2.35-5.25,5.25v1 c0,2.9,2.35,5.25,5.25,5.25h20.36c2.9,0,5.25-2.35,5.25-5.25v-1C79.68,6.42,77.33,4.07,74.43,4.07L74.43,4.07z" style="fill:#424242;"/>
        </g>
      </g>
      <circle cx="64" cy="71.9" r="52.03" style="fill:#616161;"/>
      <linearGradient id="SVGID_1_" gradientUnits="userSpaceOnUse" x1="64.2541" x2="64.2541" y1="41.9246" y2="119.5372">
        <stop offset="0.3212" style="stop-color:#ECEFF1"/>
        <stop offset="1" style="stop-color:#B0BEC5"/>
      </linearGradient>
      <circle cx="64.25" cy="71.9" r="40.32" style="fill:url(#SVGID_1_);"/>
      <path d="M63.08,46.97l-3.23,27.6l4.02,2.33l4.74-2.33L65.1,46.96C64.92,45.93,63.24,45.94,63.08,46.97z" style="fill:#F44336;"/>
      <circle cx="31.96" cy="72.01" r="3.47" style="fill:#757575;"/>
      <circle cx="63.91" cy="38.98" r="3.47" style="fill:#757575;"/>
      <circle cx="63.91" cy="103.96" r="3.47" style="fill:#757575;"/>
      <circle cx="95.86" cy="72.01" r="3.47" style="fill:#757575;"/>
      <g style="opacity:0.2;">
        <path d="M64.25,33.58c21.13,0,38.32,17.19,38.32,38.32s-17.19,38.32-38.32,38.32S25.93,93.03,25.93,71.9 S43.12,33.58,64.25,33.58 M64.25,31.58c-22.27,0-40.32,18.05-40.32,40.32s18.05,40.32,40.32,40.32 c22.27,0,40.32-18.05,40.32-40.32S86.52,31.58,64.25,31.58L64.25,31.58z" style="fill:#424242;"/>
      </g>
      <g style="opacity:0.2;">
        <path d="M64,22.87c27.04,0,49.03,22,49.03,49.03s-22,49.03-49.03,49.03s-49.03-22-49.03-49.03 S36.96,22.87,64,22.87 M64,19.87c-28.74,0-52.03,23.3-52.03,52.03s23.3,52.03,52.03,52.03s52.03-23.3,52.03-52.03 S92.74,19.87,64,19.87L64,19.87z" style="fill:#424242;"/>
      </g>
      <circle cx="64" cy="71.9" r="6.07" style="fill:#424242;"/>
      <circle cx="64" cy="71.9" r="2.6" style="fill:#CFD8DC;"/>
    </g>
  </g>
  <g id="Layer_2_x5F_复制" style="display:none;">
    <g style="display:inline;opacity:0.3;">
      <g style="opacity:0.6;">
        <circle cx="64" cy="64" r="28" style="opacity:0.61;fill:none;stroke:#000000;stroke-width:0.2625;stroke-miterlimit:10;"/>
        <line style="opacity:0.61;fill:none;stroke:#000000;stroke-width:0.25;stroke-miterlimit:10;" x1="84" x2="84" y1="0" y2="128"/>
        <line style="opacity:0.61;fill:none;stroke:#000000;stroke-width:0.25;stroke-miterlimit:10;" x1="44" x2="44" y1="0" y2="128"/>
        <line style="opacity:0.61;fill:none;stroke:#000000;stroke-width:0.25;stroke-miterlimit:10;" x1="64" x2="64" y1="0" y2="128"/>
        <line style="opacity:0.61;fill:none;stroke:#000000;stroke-width:0.25;stroke-miterlimit:10;" x1="128" x2="0" y1="64" y2="64"/>
        <line style="opacity:0.61;fill:none;stroke:#000000;stroke-width:0.25;stroke-miterlimit:10;" x1="128" x2="0" y1="44" y2="44"/>
        <line style="opacity:0.61;fill:none;stroke:#000000;stroke-width:0.25;stroke-miterlimit:10;" x1="128" x2="0" y1="83.75" y2="83.75"/>
        <line style="opacity:0.61;fill:none;stroke:#000000;stroke-width:0.25;stroke-miterlimit:10;" x1="128" x2="0" y1="128" y2="0"/>
        <line style="opacity:0.61;fill:none;stroke:#000000;stroke-width:0.25;stroke-miterlimit:10;" x1="0" x2="128" y1="128" y2="0"/>
        <g style="opacity:0.61;">
          <path d="M64,4.26c32.94,0,59.74,26.8,59.74,59.74S96.94,123.74,64,123.74S4.26,96.94,4.26,64S31.06,4.26,64,4.26 M64,4 C30.86,4,4,30.86,4,64c0,33.14,26.86,60,60,60c33.14,0,60-26.86,60-60C124,30.86,97.14,4,64,4L64,4z"/>
        </g>
        <path d="M107.97,115.97H20.03 c-4.42,0-8.03-3.61-8.03-8.03V20.03c0-4.42,3.61-8.03,8.03-8.03h87.94c4.42,0,8.03,3.61,8.03,8.03v87.91 C116,112.36,112.39,115.97,107.97,115.97z" style="opacity:0.61;fill:none;stroke:#000000;stroke-width:0.2578;stroke-miterlimit:10;"/>
        <path d="M99.75,124H28 c-4.4,0-8-3.6-8-8V12c0-4.4,3.6-8,8-8h71.75c4.4,0,8,3.6,8,8v104C107.75,120.4,104.15,124,99.75,124z" style="opacity:0.61;fill:none;stroke:#000000;stroke-width:0.2567;stroke-miterlimit:10;"/>
        <path d="M113.77,108H14.23 C8.6,108,4,103.4,4,97.77V30.28c0-5.63,4.6-10.23,10.23-10.23h99.54c5.63,0,10.23,4.6,10.23,10.23v67.48 C124,103.4,119.4,108,113.77,108z" style="opacity:0.61;fill:none;stroke:#000000;stroke-width:0.2627;stroke-miterlimit:10;"/>
      </g>
      <g>
        <g style="opacity:0.2;">
          <defs>
            <rect id="SVGID_2_" height="128" style="opacity:0.2;" width="128"/>
          </defs>
          <clipPath id="SVGID_3_">
            <use style="overflow:visible;" xlink:href="#SVGID_2_"/>
          </clipPath>
          <g style="clip-path:url(#SVGID_3_);">
            <g>
              <line style="fill:none;stroke:#000000;stroke-width:0.25;stroke-miterlimit:10;" x1="-28" x2="-28" y1="160" y2="-32"/>
              <line style="fill:none;stroke:#000000;stroke-width:0.25;stroke-miterlimit:10;" x1="-24" x2="-24" y1="160" y2="-32"/>
              <line style="fill:none;stroke:#000000;stroke-width:0.25;stroke-miterlimit:10;" x1="-20" x2="-20" y1="160" y2="-32"/>
              <line style="fill:none;stroke:#000000;stroke-width:0.25;stroke-miterlimit:10;" x1="-16" x2="-16" y1="160" y2="-32"/>
              <line style="fill:none;stroke:#000000;stroke-width:0.25;stroke-miterlimit:10;" x1="-12" x2="-12" y1="160" y2="-32"/>
              <line style="fill:none;stroke:#000000;stroke-width:0.25;stroke-miterlimit:10;" x1="-8" x2="-8" y1="160" y2="-32"/>
              <line style="fill:none;stroke:#000000;stroke-width:0.25;stroke-miterlimit:10;" x1="-4" x2="-4" y1="160" y2="-32"/>
              <line style="fill:none;stroke:#000000;stroke-width:0.25;stroke-miterlimit:10;" x1="0" x2="0" y1="160" y2="-32"/>
              <line style="fill:none;stroke:#000000;stroke-width:0.25;stroke-miterlimit:10;" x1="4" x2="4" y1="160" y2="-32"/>
              <line style="fill:none;stroke:#000000;stroke-width:0.25;stroke-miterlimit:10;" x1="8" x2="8" y1="160" y2="-32"/>
              <line style="fill:none;stroke:#000000;stroke-width:0.25;stroke-miterlimit:10;" x1="12" x2="12" y1="160" y2="-32"/>
              <line style="fill:none;stroke:#000000;stroke-width:0.25;stroke-miterlimit:10;" x1="16" x2="16" y1="160" y2="-32"/>
              <line style="fill:none;stroke:#000000;stroke-width:0.25;stroke-miterlimit:10;" x1="20" x2="20" y1="160" y2="-32"/>
              <line style="fill:none;stroke:#000000;stroke-width:0.25;stroke-miterlimit:10;" x1="24" x2="24" y1="160" y2="-32"/>
              <line style="fill:none;stroke:#000000;stroke-width:0.25;stroke-miterlimit:10;" x1="28" x2="28" y1="160" y2="-32"/>
              <line style="fill:none;stroke:#000000;stroke-width:0.25;stroke-miterlimit:10;" x1="32" x2="32" y1="160" y2="-32"/>
              <line style="fill:none;stroke:#000000;stroke-width:0.25;stroke-miterlimit:10;" x1="36" x2="36" y1="160" y2="-32"/>
              <line style="fill:none;stroke:#000000;stroke-width:0.25;stroke-miterlimit:10;" x1="40" x2="40" y1="160" y2="-32"/>
              <line style="fill:none;stroke:#000000;stroke-width:0.25;stroke-miterlimit:10;" x1="44" x2="44" y1="160" y2="-32"/>
              <line style="fill:none;stroke:#000000;stroke-width:0.25;stroke-miterlimit:10;" x1="48" x2="48" y1="160" y2="-32"/>
              <line style="fill:none;stroke:#000000;stroke-width:0.25;stroke-miterlimit:10;" x1="52" x2="52" y1="160" y2="-32"/>
              <line style="fill:none;stroke:#000000;stroke-width:0.25;stroke-miterlimit:10;" x1="56" x2="56" y1="160" y2="-32"/>
              <line style="fill:none;stroke:#000000;stroke-width:0.25;stroke-miterlimit:10;" x1="60" x2="60" y1="160" y2="-32"/>
              <line style="fill:none;stroke:#000000;stroke-width:0.25;stroke-miterlimit:10;" x1="64" x2="64" y1="160" y2="-32"/>
              <line style="fill:none;stroke:#000000;stroke-width:0.25;stroke-miterlimit:10;" x1="68" x2="68" y1="160" y2="-32"/>
              <line style="fill:none;stroke:#000000;stroke-width:0.25;stroke-miterlimit:10;" x1="72" x2="72" y1="160" y2="-32"/>
              <line style="fill:none;stroke:#000000;stroke-width:0.25;stroke-miterlimit:10;" x1="76" x2="76" y1="160" y2="-32"/>
              <line style="fill:none;stroke:#000000;stroke-width:0.25;stroke-miterlimit:10;" x1="80" x2="80" y1="160" y2="-32"/>
              <line style="fill:none;stroke:#000000;stroke-width:0.25;stroke-miterlimit:10;" x1="84" x2="84" y1="160" y2="-32"/>
              <line style="fill:none;stroke:#000000;stroke-width:0.25;stroke-miterlimit:10;" x1="88" x2="88" y1="160" y2="-32"/>
              <line style="fill:none;stroke:#000000;stroke-width:0.25;stroke-miterlimit:10;" x1="92" x2="92" y1="160" y2="-32"/>
              <line style="fill:none;stroke:#000000;stroke-width:0.25;stroke-miterlimit:10;" x1="96" x2="96" y1="160" y2="-32"/>
              <line style="fill:none;stroke:#000000;stroke-width:0.25;stroke-miterlimit:10;" x1="100" x2="100" y1="160" y2="-32"/>
              <line style="fill:none;stroke:#000000;stroke-width:0.25;stroke-miterlimit:10;" x1="104" x2="104" y1="160" y2="-32"/>
              <line style="fill:none;stroke:#000000;stroke-width:0.25;stroke-miterlimit:10;" x1="108" x2="108" y1="160" y2="-32"/>
              <line style="fill:none;stroke:#000000;stroke-width:0.25;stroke-miterlimit:10;" x1="112" x2="112" y1="160" y2="-32"/>
              <line style="fill:none;stroke:#000000;stroke-width:0.25;stroke-miterlimit:10;" x1="116" x2="116" y1="160" y2="-32"/>
              <line style="fill:none;stroke:#000000;stroke-width:0.25;stroke-miterlimit:10;" x1="120" x2="120" y1="160" y2="-32"/>
              <line style="fill:none;stroke:#000000;stroke-width:0.25;stroke-miterlimit:10;" x1="124" x2="124" y1="160" y2="-32"/>
              <line style="fill:none;stroke:#000000;stroke-width:0.25;stroke-miterlimit:10;" x1="128" x2="128" y1="160" y2="-32"/>
              <line style="fill:none;stroke:#000000;stroke-width:0.25;stroke-miterlimit:10;" x1="132" x2="132" y1="160" y2="-32"/>
              <line style="fill:none;stroke:#000000;stroke-width:0.25;stroke-miterlimit:10;" x1="136" x2="136" y1="160" y2="-32"/>
              <line style="fill:none;stroke:#000000;stroke-width:0.25;stroke-miterlimit:10;" x1="137" x2="137" y1="166.05" y2="-25.95"/>
              <line style="fill:none;stroke:#000000;stroke-width:0.25;stroke-miterlimit:10;" x1="144" x2="144" y1="160" y2="-32"/>
              <line style="fill:none;stroke:#000000;stroke-width:0.25;stroke-miterlimit:10;" x1="148" x2="148" y1="160" y2="-32"/>
              <line style="fill:none;stroke:#000000;stroke-width:0.25;stroke-miterlimit:10;" x1="152" x2="152" y1="160" y2="-32"/>
              <line style="fill:none;stroke:#000000;stroke-width:0.25;stroke-miterlimit:10;" x1="156" x2="156" y1="160" y2="-32"/>
            </g>
            <g>
              <line style="fill:none;stroke:#000000;stroke-width:0.25;stroke-miterlimit:10;" x1="-32" x2="160" y1="-28" y2="-28"/>
              <line style="fill:none;stroke:#000000;stroke-width:0.25;stroke-miterlimit:10;" x1="-32" x2="160" y1="-24" y2="-24"/>
              <line style="fill:none;stroke:#000000;stroke-width:0.25;stroke-miterlimit:10;" x1="-32" x2="160" y1="-20" y2="-20"/>
              <line style="fill:none;stroke:#000000;stroke-width:0.25;stroke-miterlimit:10;" x1="-32" x2="160" y1="-16" y2="-16"/>
              <line style="fill:none;stroke:#000000;stroke-width:0.25;stroke-miterlimit:10;" x1="-32" x2="160" y1="-12" y2="-12"/>
              <line style="fill:none;stroke:#000000;stroke-width:0.25;stroke-miterlimit:10;" x1="-32" x2="160" y1="-8" y2="-8"/>
              <line style="fill:none;stroke:#000000;stroke-width:0.25;stroke-miterlimit:10;" x1="-32" x2="160" y1="-4" y2="-4"/>
              <line style="fill:none;stroke:#000000;stroke-width:0.25;stroke-miterlimit:10;" x1="-32" x2="160" y1="0" y2="0"/>
              <line style="fill:none;stroke:#000000;stroke-width:0.25;stroke-miterlimit:10;" x1="-32" x2="160" y1="4" y2="4"/>
              <line style="fill:none;stroke:#000000;stroke-width:0.25;stroke-miterlimit:10;" x1="-32" x2="160" y1="8" y2="8"/>
              <line style="fill:none;stroke:#000000;stroke-width:0.25;stroke-miterlimit:10;" x1="-32" x2="160" y1="12" y2="12"/>
              <line style="fill:none;stroke:#000000;stroke-width:0.25;stroke-miterlimit:10;" x1="-32" x2="160" y1="16" y2="16"/>
              <line style="fill:none;stroke:#000000;stroke-width:0.25;stroke-miterlimit:10;" x1="-32" x2="160" y1="20" y2="20"/>
              <line style="fill:none;stroke:#000000;stroke-width:0.25;stroke-miterlimit:10;" x1="-32" x2="160" y1="24" y2="24"/>
              <line style="fill:none;stroke:#000000;stroke-width:0.25;stroke-miterlimit:10;" x1="-32" x2="160" y1="28" y2="28"/>
              <line style="fill:none;stroke:#000000;stroke-width:0.25;stroke-miterlimit:10;" x1="-32" x2="160" y1="32" y2="32"/>
              <line style="fill:none;stroke:#000000;stroke-width:0.25;stroke-miterlimit:10;" x1="-32" x2="160" y1="36" y2="36"/>
              <line style="fill:none;stroke:#000000;stroke-width:0.25;stroke-miterlimit:10;" x1="-32" x2="160" y1="40" y2="40"/>
              <line style="fill:none;stroke:#000000;stroke-width:0.25;stroke-miterlimit:10;" x1="-32" x2="160" y1="44" y2="44"/>
              <line style="fill:none;stroke:#000000;stroke-width:0.25;stroke-miterlimit:10;" x1="-32" x2="160" y1="48" y2="48"/>
              <line style="fill:none;stroke:#000000;stroke-width:0.25;stroke-miterlimit:10;" x1="-32" x2="160" y1="52" y2="52"/>
              <line style="fill:none;stroke:#000000;stroke-width:0.25;stroke-miterlimit:10;" x1="-32" x2="160" y1="56" y2="56"/>
              <line style="fill:none;stroke:#000000;stroke-width:0.25;stroke-miterlimit:10;" x1="-32" x2="160" y1="60" y2="60"/>
              <line style="fill:none;stroke:#000000;stroke-width:0.25;stroke-miterlimit:10;" x1="-32" x2="160" y1="64" y2="64"/>
              <line style="fill:none;stroke:#000000;stroke-width:0.25;stroke-miterlimit:10;" x1="-32" x2="160" y1="68" y2="68"/>
              <line style="fill:none;stroke:#000000;stroke-width:0.25;stroke-miterlimit:10;" x1="-32" x2="160" y1="72" y2="72"/>
              <line style="fill:none;stroke:#000000;stroke-width:0.25;stroke-miterlimit:10;" x1="-32" x2="160" y1="76" y2="76"/>
              <line style="fill:none;stroke:#000000;stroke-width:0.25;stroke-miterlimit:10;" x1="-32" x2="160" y1="80" y2="80"/>
              <line style="fill:none;stroke:#000000;stroke-width:0.25;stroke-miterlimit:10;" x1="-32" x2="160" y1="84" y2="84"/>
              <line style="fill:none;stroke:#000000;stroke-width:0.25;stroke-miterlimit:10;" x1="-32" x2="160" y1="88" y2="88"/>
              <line style="fill:none;stroke:#000000;stroke-width:0.25;stroke-miterlimit:10;" x1="-32" x2="160" y1="92" y2="92"/>
              <line style="fill:none;stroke:#000000;stroke-width:0.25;stroke-miterlimit:10;" x1="-32" x2="160" y1="96" y2="96"/>
              <line style="fill:none;stroke:#000000;stroke-width:0.25;stroke-miterlimit:10;" x1="-32" x2="160" y1="100" y2="100"/>
              <line style="fill:none;stroke:#000000;stroke-width:0.25;stroke-miterlimit:10;" x1="-32" x2="160" y1="104" y2="104"/>
              <line style="fill:none;stroke:#000000;stroke-width:0.25;stroke-miterlimit:10;" x1="-32" x2="160" y1="108" y2="108"/>
              <line style="fill:none;stroke:#000000;stroke-width:0.25;stroke-miterlimit:10;" x1="-32" x2="160" y1="112" y2="112"/>
              <line style="fill:none;stroke:#000000;stroke-width:0.25;stroke-miterlimit:10;" x1="-32" x2="160" y1="116" y2="116"/>
              <line style="fill:none;stroke:#000000;stroke-width:0.25;stroke-miterlimit:10;" x1="-32" x2="160" y1="120" y2="120"/>
              <line style="fill:none;stroke:#000000;stroke-width:0.25;stroke-miterlimit:10;" x1="-32" x2="160" y1="124" y2="124"/>
              <line style="fill:none;stroke:#000000;stroke-width:0.25;stroke-miterlimit:10;" x1="-32" x2="160" y1="128" y2="128"/>
              <line style="fill:none;stroke:#000000;stroke-width:0.25;stroke-miterlimit:10;" x1="-32" x2="160" y1="132" y2="132"/>
              <line style="fill:none;stroke:#000000;stroke-width:0.25;stroke-miterlimit:10;" x1="-32" x2="160" y1="136" y2="136"/>
              <line style="fill:none;stroke:#000000;stroke-width:0.25;stroke-miterlimit:10;" x1="-32" x2="160" y1="140" y2="140"/>
              <line style="fill:none;stroke:#000000;stroke-width:0.25;stroke-miterlimit:10;" x1="-32" x2="160" y1="144" y2="144"/>
              <line style="fill:none;stroke:#000000;stroke-width:0.25;stroke-miterlimit:10;" x1="-32" x2="160" y1="148" y2="148"/>
              <line style="fill:none;stroke:#000000;stroke-width:0.25;stroke-miterlimit:10;" x1="-32" x2="160" y1="152" y2="152"/>
              <line style="fill:none;stroke:#000000;stroke-width:0.25;stroke-miterlimit:10;" x1="-32" x2="160" y1="156" y2="156"/>
            </g>
            <path d="M159.75-31.75v191.5h-191.5v-191.5H159.75 M160-32H-32v192h192V-32L160-32z"/>
          </g>
        </g>
        <g>
          <rect height="128" style="opacity:0.3;fill:#F44336;" width="4"/>
          <rect height="128" style="opacity:0.3;fill:#F44336;" width="4" x="124"/>
          <rect height="120" style="opacity:0.3;fill:#F44336;" transform="matrix(-1.836970e-16 1 -1 -1.836970e-16 66 -62)" width="4" x="62" y="-58"/>
          <rect height="120" style="opacity:0.3;fill:#F44336;" transform="matrix(-1.836970e-16 1 -1 -1.836970e-16 190 62)" width="4" x="62" y="66"/>
        </g>
      </g>
    </g>
  </g>
</svg>
